src/assets/icons/heart.svg

<svg width="14" height="14" viewBox="0 0 14 14" fill="none" xmlns="http://www.w3.org/2000/svg">
<g id="heart">
<g clip-path="url(#clip0_156_4706)">
<path id="Vector" d="M6.99964 13.2021C6.84039 13.2021 6.68674 13.1388 6.5747 13.0252L1.16012 7.59301C-0.386788 6.0421 -0.386788 3.51647 1.16012 1.96476C1.90997 1.21251 2.90709 0.797974 3.96824 0.797974C5.02939 0.797974 6.02652 1.21251 6.77637 1.96476L7.00044 2.18963L7.22451 1.96476C7.97516 1.21251 8.97229 0.797974 10.0326 0.797974C11.093 0.797974 12.0909 1.21251 12.84 1.96476L12.8408 1.96636C14.3869 3.51727 14.3861 6.0421 12.84 7.59301L7.42538 13.0252C7.31174 13.1388 7.15889 13.2021 6.99964 13.2021ZM3.96664 1.99837C3.2272 1.99837 2.53177 2.28726 2.0092 2.81224C0.928045 3.89659 0.928045 5.66197 2.0092 6.74633L6.99884 11.752L11.9885 6.74633C13.0696 5.66277 13.0704 3.89739 11.9893 2.81384L11.9885 2.81224C11.4659 2.28806 10.7705 1.99837 10.031 1.99837C9.29239 1.99837 8.59696 2.28646 8.07439 2.81144L7.42458 3.46365C7.19971 3.69012 6.79957 3.69012 6.5747 3.46365L5.92489 2.81224C5.40151 2.28726 4.70609 1.99837 3.96664 1.99837Z" fill="black"/>
</g>
</g>
<defs>
<clipPath id="clip0_156_4706">
<rect width="14" height="14" fill="white"/>
</clipPath>
</defs>
</svg>

<svg xmlns="http://www.w3.org/2000/svg" fill="none" viewBox="0 0 14 14"><g clip-path="url(#a)"><path fill="#000" d="M7 13.202a.6.6 0 0 1-.425-.177L1.16 7.593a3.993 3.993 0 0 1 0-5.628A3.94 3.94 0 0 1 3.968.798c1.061 0 2.059.415 2.808 1.167L7 2.19l.225-.225A3.94 3.94 0 0 1 10.033.798c1.06 0 2.058.415 2.807 1.167v.001a3.993 3.993 0 0 1 0 5.627l-5.415 5.432a.6.6 0 0 1-.425.177M3.967 1.998c-.74 0-1.435.29-1.958.814a2.79 2.79 0 0 0 0 3.934L7 11.752l4.99-5.006a2.79 2.79 0 0 0 0-3.932v-.002a2.75 2.75 0 0 0-1.958-.814c-.739 0-1.434.288-1.957.813l-.65.653a.616.616 0 0 1-.85 0l-.65-.652a2.75 2.75 0 0 0-1.957-.814"/></g><defs><clipPath id="a"><path fill="#fff" d="M0 0h14v14H0z"/></clipPath></defs></svg>
